packages/assets/static/images/icons/sailboat.svg

<svg width="24" height="24" viewBox="0 0 24 24" xmlns="http://www.w3.org/2000/svg">
<path d="M23.176 17.6726C23.1148 17.5453 23.0188 17.438 22.8993 17.3628C22.7797 17.2877 22.6413 17.2479 22.5001 17.2479H13.5001V14.9979H20.2501C20.3954 14.9979 20.5375 14.9557 20.6593 14.8764C20.781 14.7971 20.8771 14.6842 20.9359 14.5514C20.9947 14.4185 21.0136 14.2714 20.9904 14.128C20.9672 13.9846 20.9028 13.851 20.8051 13.7435L13.5001 5.70821V2.2479C13.4993 2.0933 13.4507 1.94275 13.361 1.81683C13.2713 1.69091 13.1449 1.59578 12.9991 1.54447C12.8532 1.49316 12.6951 1.48816 12.5463 1.53017C12.3975 1.57218 12.2654 1.65914 12.1679 1.77915L2.41792 13.7791C2.32978 13.8892 2.27446 14.0219 2.25831 14.162C2.24216 14.3021 2.26584 14.4439 2.32663 14.5712C2.38741 14.6984 2.48284 14.806 2.60197 14.8814C2.72109 14.9569 2.85908 14.9973 3.0001 14.9979H12.0001V17.2479H1.5001C1.35876 17.2478 1.22028 17.2877 1.1006 17.3629C0.980926 17.4381 0.884937 17.5455 0.823695 17.6729C0.762453 17.8003 0.738453 17.9424 0.754459 18.0828C0.770466 18.2233 0.825828 18.3563 0.914166 18.4666L3.68917 21.9354C3.82938 22.1113 4.00752 22.2532 4.21027 22.3506C4.41303 22.448 4.63517 22.4984 4.8601 22.4979H19.1401C19.365 22.4984 19.5872 22.448 19.7899 22.3506C19.9927 22.2532 20.1708 22.1113 20.311 21.9354L23.086 18.4666C23.1744 18.3562 23.2297 18.2231 23.2456 18.0826C23.2615 17.9421 23.2374 17.8 23.176 17.6726ZM18.5551 13.4979H13.5001V7.93759L18.5551 13.4979ZM4.57604 13.4979L12.0001 4.36009V13.4979H4.57604ZM19.1401 20.9979H4.8601L3.0601 18.7479H20.9401L19.1401 20.9979Z"/>
</svg>

<svg viewBox="0 0 24 24" xmlns="http://www.w3.org/2000/svg" aria-hidden="true" fill="currentColor"><path d="M23.176 17.673a.75.75 0 0 0-.676-.425h-9v-2.25h6.75a.75.75 0 0 0 .555-1.255L13.5 5.708v-3.46a.75.75 0 0 0-1.332-.469l-9.75 12A.75.75 0 0 0 3 14.998h9v2.25H1.5a.75.75 0 0 0-.586 1.219l2.775 3.468a1.5 1.5 0 0 0 1.171.563h14.28a1.5 1.5 0 0 0 1.171-.563l2.775-3.468a.75.75 0 0 0 .09-.794m-4.62-4.175H13.5v-5.56zm-13.98 0L12 4.36v9.138zm14.564 7.5H4.86l-1.8-2.25h17.88z"/></svg>
